modules/zondicons/icons/show-sidebar.svg

<?xml version="1.0" encoding="UTF-8" standalone="no"?>
<svg width="20px" height="20px" viewBox="0 0 20 20" version="1.1" xmlns="http://www.w3.org/2000/svg" xmlns:xlink="http://www.w3.org/1999/xlink">
    <!-- Generator: Sketch 3.7.2 (28276) - http://www.bohemiancoding.com/sketch -->
    <title>show-sidebar</title>
    <desc>Created with Sketch.</desc>
    <defs></defs>
    <g id="Page-1" stroke="none" stroke-width="1" fill="none" fill-rule="evenodd">
        <g id="show-sidebar" fill="#000000">
            <path d="M7,3 L2,3 L2,17 L7,17 L7,3 Z M9,3 L18,3 L18,17 L9,17 L9,3 Z M0,2.99508929 C0,1.8932319 0.898212381,1 1.99079514,1 L18.0092049,1 C19.1086907,1 20,1.8926228 20,2.99508929 L20,17.0049107 C20,18.1067681 19.1017876,19 18.0092049,19 L1.99079514,19 C0.891309342,19 0,18.1073772 0,17.0049107 L0,2.99508929 Z M3,4 L6,4 L6,6 L3,6 L3,4 Z M3,7 L6,7 L6,9 L3,9 L3,7 Z M3,10 L6,10 L6,12 L3,12 L3,10 Z" id="Combined-Shape"></path>
        </g>
    </g>
</svg>

<svg width="20" height="20" viewBox="0 0 20 20" xmlns="http://www.w3.org/2000/svg"><path d="M7 3H2v14h5V3zm2 0h9v14H9V3zm-9-.005C0 1.893.898 1 1.99 1h16.02C19.108 1 20 1.893 20 2.995v14.01A1.997 1.997 0 0 1 18.01 19H1.99C.892 19 0 18.107 0 17.005V2.995zM3 4h3v2H3V4zm0 3h3v2H3V7zm0 3h3v2H3v-2z" fill="#000" fill-rule="evenodd"/></svg>
